packages/ui-solid/icons/link_24.svg

<svg width="24" height="24" viewBox="0 0 24 24" fill="none" xmlns="http://www.w3.org/2000/svg">
<path fill-rule="evenodd" clip-rule="evenodd" d="M17.8033 6.03756C16.0741 4.33116 13.2946 4.33116 11.5655 6.03756L9.94978 7.63197C9.59599 7.98111 9.02615 7.97733 8.67701 7.62354C8.32788 7.26975 8.33166 6.69991 8.68545 6.35078L10.3011 4.75636C12.7313 2.35823 16.6375 2.35823 19.0676 4.75636C21.5437 7.19987 21.5437 11.1963 19.0676 13.6398L17.5527 15.1348C17.1989 15.4839 16.629 15.4801 16.2799 15.1263C15.9308 14.7725 15.9346 14.2027 16.2883 13.8536L17.8033 12.3586C19.5651 10.6199 19.5651 7.77625 17.8033 6.03756ZM7.72207 8.56591C8.0712 8.91971 8.06743 9.48954 7.71363 9.83868L6.19872 11.3336C4.43683 13.0723 4.43683 15.916 6.19871 17.6547C7.92788 19.3611 10.7073 19.3611 12.4365 17.6547L14.0522 16.0603C14.406 15.7111 14.9758 15.7149 15.325 16.0687C15.6741 16.4225 15.6703 16.9923 15.3165 17.3415L13.7008 18.9359C11.2707 21.334 7.36452 21.334 4.93439 18.9359C2.45827 16.4924 2.45827 12.496 4.93439 10.0524L6.4493 8.55748C6.8031 8.20834 7.37293 8.21212 7.72207 8.56591ZM14.8777 9.00725C15.2269 9.36105 15.2231 9.93088 14.8693 10.28L10.397 14.6934C10.0432 15.0426 9.47338 15.0388 9.12424 14.685C8.77511 14.3312 8.77889 13.7614 9.13268 13.4122L13.605 8.99882C13.9588 8.64968 14.5286 8.65346 14.8777 9.00725Z" fill="#007AFF"/>
</svg>

<svg xmlns="http://www.w3.org/2000/svg" width="24" height="24" fill="none"><path fill="currentColor" fill-rule="evenodd" d="M17.803 6.038a4.44 4.44 0 0 0-6.238 0L9.95 7.632a.9.9 0 0 1-1.265-1.281l1.616-1.595a6.24 6.24 0 0 1 8.767 8.884l-1.515 1.495a.9.9 0 0 1-1.265-1.281l1.515-1.495a4.44 4.44 0 0 0 0-6.321M7.723 8.566a.9.9 0 0 1-.01 1.273L6.2 11.334a4.44 4.44 0 0 0 6.238 6.32l1.615-1.594a.9.9 0 1 1 1.265 1.282L13.7 18.936a6.24 6.24 0 1 1-8.767-8.884L6.45 8.557a.9.9 0 0 1 1.273.009m7.155.441a.9.9 0 0 1-.009 1.273l-4.472 4.413a.9.9 0 1 1-1.264-1.28l4.472-4.414a.9.9 0 0 1 1.273.008" clip-rule="evenodd"/></svg>
